X: 39733
T: Thadelo's
R: hornpipe
M: 4/4
K: Gmajor
d2 e>f gz gd|e/f/g e>d B2 B2|d/e/f d>B A2 A2|d/e/f d>B A2 A2|
d2 e>f gz gd|e/f/g e>d B2 B2|d2 d>e dBAB|G2 G>F G2 G2||
d2 d>c BABd|e2 A2 A2 A>B|d2 A2 AG A>B|A2 G2 G2 A>B|
d2 d>c BABd|e2 A2 A2 A>B|d2 d>e dBAB|G2 G>F G2 G2||

